X: 38536
T: Stephen's Nod To Mick
R: jig
M: 6/8
K: Ddorian
|:A,2D DEF|EDC CA,G,|A,DF FDA,|G,2G GED|
A,2D DEF|EDC CDE|FDF GEE|1 FED D2C:|2 FED D2c||
|:BGG dBG|AFD DFF|EDC CEG|FED D2c|
BGG dBG|AFD DFF|EFG AGE|FED D2c:|
|:Add fdd|add fdd|e2g gec|G2B BGE|
D2d fed|add fdd|e2g gag|1 ed^c d2=c:|2 ed^c d3||

